icons/PostgreSQL-Light.svg

<svg xmlns="http://www.w3.org/2000/svg" width="256" height="256" fill="none" viewBox="0 0 256 256"><rect width="256" height="256" fill="#F4F2ED" rx="60"/><g clip-path="url(#clip0_7_155)"><path fill="#000" d="M171.474 169.034C172.62 159.493 172.276 158.101 179.377 159.641L181.184 159.802C186.648 160.048 193.791 158.923 198.059 156.976C207.095 152.785 212.452 145.782 203.544 147.624C183.223 151.815 181.747 144.931 181.747 144.931C203.213 113.08 212.192 72.65 204.437 62.757C183.315 35.757 146.745 48.5258 146.134 48.8633L145.937 48.8984C141.929 48.0547 137.499 47.5625 132.366 47.4922C123.17 47.3516 116.195 49.9039 110.893 53.9188C110.893 53.9188 45.6641 27.0453 48.6945 87.718C49.3414 100.627 67.1867 185.452 88.4914 159.788C96.2891 150.409 103.813 142.484 103.813 142.484C107.539 144.966 112.018 146.232 116.708 145.775L117.073 145.466C116.965 146.681 117.015 147.905 117.221 149.108C111.737 155.239 113.354 156.315 102.385 158.572C91.2899 160.857 97.8149 164.928 102.062 165.997C107.223 167.291 119.162 169.119 127.234 157.827L126.91 159.113C129.062 160.836 128.914 171.488 129.23 179.096C129.547 186.704 130.046 193.813 131.6 197.996C133.154 202.18 134.975 212.973 149.389 209.949C161.434 207.369 170.645 203.649 171.488 169.098"/><path stroke="#000" stroke-width="15.11" d="M171.474 169.034C172.62 159.493 172.276 158.101 179.377 159.641L181.184 159.802C186.648 160.048 193.791 158.923 198.059 156.976C207.095 152.785 212.452 145.782 203.544 147.624C183.223 151.815 181.747 144.931 181.747 144.931C203.213 113.08 212.192 72.65 204.437 62.757C183.315 35.757 146.745 48.5258 146.134 48.8633L145.937 48.8984C141.929 48.0547 137.499 47.5625 132.366 47.4922C123.17 47.3516 116.195 49.9039 110.893 53.9188C110.893 53.9188 45.6641 27.0453 48.6945 87.718C49.3414 100.627 67.1867 185.452 88.4914 159.788C96.2891 150.409 103.813 142.484 103.813 142.484C107.539 144.966 112.018 146.232 116.708 145.775L117.073 145.466C116.965 146.681 117.015 147.905 117.221 149.108C111.737 155.239 113.354 156.315 102.385 158.572C91.2899 160.857 97.8149 164.928 102.062 165.997C107.223 167.291 119.162 169.119 127.234 157.827L126.91 159.113C129.062 160.836 128.914 171.488 129.23 179.096C129.547 186.704 130.046 193.813 131.6 197.996C133.154 202.18 134.975 212.973 149.389 209.949C161.434 207.369 170.645 203.649 171.488 169.098"/><path fill="#336791" d="M203.48 147.688C183.16 151.878 181.684 144.995 181.684 144.995C203.15 113.143 212.129 72.7134 204.38 62.8204C183.259 35.8204 146.689 48.5962 146.077 48.9266L145.88 48.9618C141.414 48.0656 136.873 47.5924 132.317 47.5485C123.12 47.4079 116.145 49.9602 110.844 53.9751C110.844 53.9751 45.6078 27.1016 48.6453 87.7743C49.2922 100.684 67.1375 185.509 88.4422 159.845C96.2891 150.409 103.813 142.484 103.813 142.484C107.539 144.966 112.018 146.232 116.708 145.775L117.073 145.466C116.966 146.681 117.016 147.905 117.221 149.108C111.737 155.239 113.354 156.315 102.385 158.572C91.2899 160.857 97.8149 164.928 102.062 165.997C107.223 167.291 119.162 169.119 127.234 157.827L126.91 159.113C129.062 160.836 130.566 170.314 130.313 178.906C130.06 187.499 129.891 193.391 131.579 198.003C133.266 202.616 134.954 212.98 149.368 209.956C161.413 207.376 167.649 200.675 168.528 189.524C169.147 181.592 170.539 182.759 170.638 175.672L171.763 172.311C173.049 161.553 171.973 158.087 179.391 159.704L181.198 159.866C186.662 160.112 193.813 158.987 198.003 157.039C207.038 152.849 212.396 145.845 203.488 147.688H203.48Z"/><path stroke="#fff" stroke-linecap="round" stroke-linejoin="round" stroke-width="5.034" d="M146.07 48.5961C143.82 49.2993 182.38 34.4985 204.303 62.504C212.038 72.3969 203.073 112.827 181.606 144.678M128.098 153.784C127.536 173.795 128.239 193.946 130.194 198.784C132.148 203.621 136.346 213.198 150.767 210.118C162.812 207.538 167.199 202.538 169.098 191.506L173.548 156.231L128.098 153.784ZM110.816 53.4688C110.816 53.4688 45.5375 26.7782 48.575 87.4508C49.2219 100.36 67.0672 185.185 88.3719 159.521C96.1484 150.148 103.18 142.815 103.18 142.815L110.816 53.4688Z"/><path stroke="#fff" stroke-linecap="round" stroke-linejoin="bevel" stroke-width="5.034" d="M181.613 144.664C181.613 144.664 183.02 151.555 203.41 147.35C212.319 145.508 206.954 152.511 197.926 156.702C190.515 160.147 173.893 161.026 173.619 156.28C172.916 144.01 182.366 147.737 181.684 144.664C181.065 141.894 176.832 139.18 174.048 132.402C171.608 126.495 140.579 81.1438 182.654 87.8727C184.201 87.5563 171.685 47.7946 132.31 47.2181C92.9352 46.6415 94.1797 95.6282 94.1797 95.6282"/><path stroke="#fff" stroke-linejoin="round" stroke-width="5.034" d="M117.08 148.869C111.596 155 113.213 156.076 102.245 158.333C91.1492 160.618 97.6742 164.689 101.921 165.758C107.082 167.052 119.021 168.88 127.093 157.58C129.554 154.135 127.079 148.651 123.704 147.259C122.073 146.584 119.893 145.74 117.095 148.876L117.08 148.869Z"/><path stroke="#fff" stroke-linecap="round" stroke-linejoin="round" stroke-width="5.034" d="M116.722 148.763C116.159 145.156 117.903 140.874 119.766 135.854C122.565 128.331 129.02 120.807 123.859 96.9219C120.012 79.1329 94.1867 93.2165 94.1867 95.6282C94.1867 98.0399 95.3539 107.863 93.7648 119.288C91.6766 134.209 103.257 146.823 116.588 145.536"/><path fill="#fff" stroke="#fff" stroke-width="1.68" d="M110.577 95.2695C110.457 96.0922 112.088 98.293 114.205 98.5883C116.321 98.8836 118.128 97.168 118.248 96.3383C118.367 95.5086 116.736 94.6086 114.62 94.3133C112.503 94.018 110.682 94.4539 110.577 95.2695V95.2695Z"/><path fill="#fff" stroke="#fff" stroke-width=".837" d="M175.011 93.5891C175.123 94.4118 173.499 96.6125 171.383 96.9079C169.266 97.2032 167.445 95.4875 167.34 94.6579C167.234 93.8282 168.852 92.9282 170.968 92.6329C173.084 92.3375 174.905 92.7735 175.011 93.5891Z"/><path stroke="#fff" stroke-linecap="round" stroke-linejoin="round" stroke-width="5.034" d="M182.577 87.8867C182.928 94.3555 181.184 98.75 180.959 105.634C180.636 115.632 185.727 127.079 178.055 138.54"/></g><defs><clipPath id="clip0_7_155"><rect width="180" height="180" fill="#fff" transform="translate(38 38)"/></clipPath></defs></svg>

<svg xmlns="http://www.w3.org/2000/svg" width="256" height="256" fill="none" viewBox="0 0 256 256"><rect width="256" height="256" fill="#F4F2ED" rx="60"/><g clip-path="url(#a)"><path fill="#000" d="M171.47 169.03c1.15-9.54.8-10.93 7.9-9.39l1.81.16c5.47.25 12.61-.88 16.88-2.82 9.03-4.2 14.4-11.2 5.48-9.36-20.32 4.2-21.8-2.69-21.8-2.69 21.47-31.85 30.45-72.28 22.7-82.17-21.12-27-57.7-14.23-58.3-13.9l-.2.04a69 69 0 0 0-13.57-1.4c-9.2-.15-16.18 2.4-21.48 6.42 0 0-65.23-26.87-62.2 33.8.65 12.9 18.5 97.73 39.8 72.07 7.8-9.38 15.32-17.3 15.32-17.3a19.7 19.7 0 0 0 12.9 3.28l.36-.3q-.15 1.83.15 3.64c-5.48 6.13-3.87 7.2-14.83 9.46-11.1 2.29-4.58 6.36-.33 7.43 5.16 1.3 17.1 3.12 25.17-8.17l-.32 1.28c2.15 1.73 2 12.38 2.32 19.99s.82 14.71 2.37 18.9 3.38 14.97 17.79 11.95c12.04-2.58 21.26-6.3 22.1-40.85"/><path stroke="#000" stroke-width="15.11" d="M171.47 169.03c1.15-9.54.8-10.93 7.9-9.39l1.81.16c5.47.25 12.61-.88 16.88-2.82 9.03-4.2 14.4-11.2 5.48-9.36-20.32 4.2-21.8-2.69-21.8-2.69 21.47-31.85 30.45-72.28 22.7-82.17-21.12-27-57.7-14.23-58.3-13.9l-.2.04a69 69 0 0 0-13.57-1.4c-9.2-.15-16.18 2.4-21.48 6.42 0 0-65.23-26.87-62.2 33.8.65 12.9 18.5 97.73 39.8 72.07 7.8-9.38 15.32-17.3 15.32-17.3a19.7 19.7 0 0 0 12.9 3.28l.36-.3q-.15 1.83.15 3.64c-5.48 6.13-3.87 7.2-14.83 9.46-11.1 2.29-4.58 6.36-.33 7.43 5.16 1.3 17.1 3.12 25.17-8.17l-.32 1.28c2.15 1.73 2 12.38 2.32 19.99s.82 14.71 2.37 18.9 3.38 14.97 17.79 11.95c12.04-2.58 21.26-6.3 22.1-40.85"/><path fill="#336791" d="M203.48 147.69c-20.32 4.19-21.8-2.7-21.8-2.7 21.47-31.85 30.45-72.28 22.7-82.17-21.12-27-57.7-14.22-58.3-13.9l-.2.04q-6.71-1.35-13.56-1.41c-9.2-.14-16.17 2.41-21.48 6.43 0 0-65.23-26.88-62.2 33.8.65 12.9 18.5 97.73 39.8 72.07 7.85-9.44 15.37-17.37 15.37-17.37a19.7 19.7 0 0 0 12.9 3.3l.36-.31q-.15 1.83.15 3.64c-5.48 6.13-3.87 7.2-14.83 9.46-11.1 2.29-4.58 6.36-.33 7.43 5.16 1.3 17.1 3.12 25.17-8.17l-.32 1.28c2.15 1.73 3.66 11.2 3.4 19.8-.25 8.59-.42 14.48 1.27 19.1 1.69 4.6 3.37 14.97 17.79 11.95 12.04-2.58 18.28-9.28 19.16-20.44.62-7.93 2-6.76 2.1-13.85l1.13-3.36c1.29-10.76.21-14.22 7.63-12.6l1.8.16c5.47.24 12.62-.88 16.81-2.83 9.04-4.2 14.4-11.2 5.49-9.35z"/><path stroke="#fff" stroke-linecap="round" stroke-linejoin="round" stroke-width="5.03" d="M146.07 48.6c-2.25.7 36.31-14.1 58.23 13.9 7.74 9.9-1.23 50.33-22.7 82.18m-53.5 9.1c-.56 20.01.14 40.17 2.1 45 1.95 4.84 6.15 14.42 20.57 11.34 12.04-2.58 16.43-7.58 18.33-18.61l4.45-35.28zM110.82 53.47s-65.28-26.7-62.24 33.98c.64 12.91 18.49 97.74 39.8 72.07 7.77-9.37 14.8-16.7 14.8-16.7z"/><path stroke="#fff" stroke-linecap="round" stroke-linejoin="bevel" stroke-width="5.03" d="M181.61 144.66s1.41 6.9 21.8 2.69c8.9-1.84 3.54 5.16-5.48 9.35-7.42 3.45-24.04 4.33-24.31-.42-.7-12.27 8.75-8.54 8.06-11.62-.62-2.77-4.85-5.48-7.63-12.26-2.44-5.9-33.47-51.26 8.6-44.53 1.55-.31-10.97-40.08-50.34-40.65s-38.13 48.4-38.13 48.4"/><path stroke="#fff" stroke-linejoin="round" stroke-width="5.03" d="M117.08 148.87c-5.48 6.13-3.87 7.2-14.83 9.46-11.1 2.29-4.58 6.36-.33 7.43 5.16 1.3 17.1 3.12 25.17-8.18 2.46-3.45-.01-8.93-3.39-10.32-1.63-.68-3.8-1.52-6.6 1.62z"/><path stroke="#fff" stroke-linecap="round" stroke-linejoin="round" stroke-width="5.03" d="M116.72 148.76c-.56-3.6 1.18-7.89 3.05-12.9 2.8-7.53 9.25-15.05 4.09-38.94-3.85-17.79-29.67-3.7-29.67-1.3 0 2.42 1.16 12.24-.43 23.67-2.08 14.92 9.5 27.53 22.83 26.25"/><path fill="#fff" stroke="#fff" stroke-width="1.68" d="M110.58 95.27c-.12.82 1.5 3.02 3.63 3.32 2.11.3 3.92-1.42 4.04-2.25s-1.51-1.73-3.63-2.03-3.94.14-4.04.96Z"/><path fill="#fff" stroke="#fff" stroke-width=".84" d="M175.01 93.59c.11.82-1.51 3.02-3.63 3.32-2.11.3-3.94-1.42-4.04-2.25s1.51-1.73 3.63-2.03c2.11-.3 3.94.14 4.04.96Z"/><path stroke="#fff" stroke-linecap="round" stroke-linejoin="round" stroke-width="5.03" d="M182.58 87.89c.35 6.47-1.4 10.86-1.62 17.74-.32 10 4.77 21.45-2.9 32.91"/></g><defs><clipPath id="a"><path fill="#fff" d="M38 38h180v180H38z"/></clipPath></defs></svg>
